X:5
T:O'Mahoney's
S:Sean Gavin
R:hornpipe
M:4/4
L:1/8
K:D
ge | dBAB G2GA | BA (3Bcd g2ga | bage dBGB | A2GB A2ge |
dBAB G2GA | BA (3Bcd g2ga | bage dBGB | G2 G2 G2 :|
|:ga | bagb a2ga | bagb a2ga | b2ba gedB | A2ge | 
dBAB G2GA | BA (3Bcd g2ga | bage dBGB | G2 G2 G2 :|

